X: 72
U:~=!turn!
M:C
L:1/8
K:D dorian
c2  GF (EC)CE | FEFG ABcA | {/^c}d2 AG (FD)D || f | (ec)ge (ac)gc | (ec)gc ecce |
fdad bdaf | fgag fddf | (ec)gc acgc | GAcd eccg | afge fde^c | d2 AG FDD |]


